X: 3
T: Fred Picknell's March
Z: ceolachan
S: https://thesession.org/tunes/12490#setting20874
R: barndance
M: 4/4
L: 1/8
K: Gmaj
|: D/E/F |G2 d2 d2 G2 | d2 cB AGAB | c2 g2 g2 g/f/e | d3 c B/c/B gf |
e2 dc Bc d2 | A/B/A/ GA B2 ed | cBAG E2 D2 | D4- D2 :|
|: E2 |D2 d2 d2 AB | c2 Bc A/B/A BA | G2 d/e/f g2 fe | d/e/d ^cd B2 ba |
g2 gf efge | agfe dGgf | edcB A3 G | G4- G2 :|
